assets/svg/1F3BF.svg

<svg xmlns="http://www.w3.org/2000/svg" viewBox="0 0 64 64" enable-background="new 0 0 64 64"><g fill="#038baa"><path d="m43.729 49.23c.058.191.305.297.556.241l0 0c.246-.056.404-.253.347-.441l-13.314-44.17c-.058-.185-.307-.293-.553-.239l0 0c-.25.058-.407.255-.349.441l13.313 44.17"/><path d="m34.404 10.677c.237.829-.343 1.665-1.301 1.872l0 0c-.96.208-1.932-.297-2.173-1.122l-1.959-6.775c-.241-.827.343-1.664 1.303-1.87l0 0c.958-.208 1.928.295 2.169 1.122l1.961 6.773"/><path d="m46.21 46.88c.066.158-.03.332-.216.388l-4.287 1.274c-.185.054-.385-.027-.447-.186l0 0c-.062-.158.035-.331.22-.388l4.284-1.273c.182-.056.384.027.446.185l0 0"/></g><path fill="#00adee" d="m2.595 25.597l31.13 34.744c0 0 7.559 5.76 15.03-4.299 0 0-5.128 1.176-7.888-1.912l-34.33-31.463-3.941 2.93"/><path fill="#038baa" d="m32.506 61.33l-31.08-34.683-1.43 1.064 31.12 34.74c0 0 5.958 4.54 12.527-1.479-6 4.278-11.146.358-11.146.358"/><g fill="#00adee"><path d="m1.216 26.721l31.12 34.74c0 0 7.56 5.76 15.04-4.297 0 0-5.128 1.176-7.889-1.91l-34.33-31.465-3.94 2.932"/><path d="m11.971 26.22l34.18 13.646c0 0 8.366 1.646 17.03-6.548 0 0-5.807 2.053-8.833.839l-37.869-10.778-4.507 2.841"/></g><g fill="#038baa"><path d="m46.04 39.677l-33.97-13.565-1.272.8 34.18 13.65c0 0 7.846 1.542 16.208-5.805-7.955 6.329-15.15 4.92-15.15 4.92"/><path d="m10.08 60.36c-.058.244.1.503.355.574l0 0c.25.073.503-.065.56-.312l13.471-57.6c.056-.247-.103-.503-.353-.576l0 0c-.254-.072-.505.067-.563.312l-13.47 57.6"/><path d="m23.876 11.327c-.262 1.074-1.257 1.708-2.225 1.419l0 0c-.968-.288-1.542-1.394-1.282-2.468l2.138-8.79c.26-1.074 1.257-1.706 2.224-1.418l0 0c.968.289 1.541 1.392 1.28 2.465l-2.135 8.792"/><path d="m13.628 59.03c-.036.216-.22.36-.415.321l-4.528-.895c-.193-.038-.324-.242-.289-.456l0 0c.035-.216.22-.36.414-.322l4.528.895c.194.038.325.243.29.457l0 0"/></g></svg>

<?xml version="1.0" encoding="utf-8"?>
<!-- Generator: Adobe Illustrator 16.0.0, SVG Export Plug-In . SVG Version: 6.00 Build 0)  -->
<!DOCTYPE svg PUBLIC "-//W3C//DTD SVG 1.1//EN" "http://www.w3.org/Graphics/SVG/1.1/DTD/svg11.dtd">
<svg version="1.1" id="Layer_1" xmlns="http://www.w3.org/2000/svg" xmlns:xlink="http://www.w3.org/1999/xlink" x="0px" y="0px"
	 width="64px" height="64px" viewBox="0 0 64 64" enable-background="new 0 0 64 64" xml:space="preserve">
<g>
	<g>
		<path fill="#038BAA" d="M43.729,49.235c0.058,0.191,0.305,0.297,0.556,0.241l0,0c0.246-0.056,0.404-0.253,0.347-0.441
			L31.318,4.863c-0.058-0.185-0.307-0.293-0.553-0.239l0,0c-0.25,0.058-0.407,0.255-0.349,0.441L43.729,49.235z"/>
		<path fill="#038BAA" d="M34.404,10.677c0.237,0.829-0.343,1.665-1.301,1.872l0,0c-0.96,0.208-1.932-0.297-2.173-1.122
			l-1.959-6.775c-0.241-0.827,0.343-1.664,1.303-1.87l0,0c0.958-0.208,1.928,0.295,2.169,1.122L34.404,10.677z"/>
		<path fill="#038BAA" d="M46.212,46.88c0.066,0.158-0.03,0.332-0.216,0.388l-4.287,1.274c-0.185,0.054-0.385-0.027-0.447-0.186l0,0
			c-0.062-0.158,0.035-0.331,0.22-0.388l4.284-1.273C45.948,46.639,46.15,46.722,46.212,46.88L46.212,46.88z"/>
	</g>
	<path fill="#00ADEE" d="M2.595,25.597l31.128,34.744c0,0,7.559,5.76,15.034-4.299c0,0-5.128,1.176-7.888-1.912L6.536,22.667
		L2.595,25.597z"/>
	<path fill="#038BAA" d="M32.506,61.334L1.43,26.651L0,27.715l31.125,34.74c0,0,5.958,4.54,12.527-1.479
		C37.65,65.254,32.506,61.334,32.506,61.334z"/>
	<path fill="#00ADEE" d="M1.216,26.721l31.125,34.74c0,0,7.56,5.76,15.035-4.297c0,0-5.128,1.176-7.889-1.91L5.156,23.789
		L1.216,26.721z"/>
	<path fill="#00ADEE" d="M11.971,26.216l34.18,13.646c0,0,8.366,1.646,17.029-6.548c0,0-5.807,2.053-8.833,0.839L16.478,23.375
		L11.971,26.216z"/>
	<path fill="#038BAA" d="M46.039,39.677l-33.97-13.565l-1.272,0.8l34.182,13.65c0,0,7.846,1.542,16.208-5.805
		C53.232,41.086,46.039,39.677,46.039,39.677z"/>
	<g>
		<path fill="#038BAA" d="M10.08,60.356c-0.058,0.244,0.1,0.503,0.355,0.574l0,0c0.25,0.073,0.503-0.065,0.56-0.312L24.466,3.017
			c0.056-0.247-0.103-0.503-0.353-0.576l0,0c-0.254-0.072-0.505,0.067-0.563,0.312L10.08,60.356z"/>
		<path fill="#038BAA" d="M23.876,11.327c-0.262,1.074-1.257,1.708-2.225,1.419l0,0c-0.968-0.288-1.542-1.394-1.282-2.468
			l2.138-8.79c0.26-1.074,1.257-1.706,2.224-1.418l0,0c0.968,0.289,1.541,1.392,1.28,2.465L23.876,11.327z"/>
		<path fill="#038BAA" d="M13.628,59.03c-0.036,0.216-0.22,0.36-0.415,0.321l-4.528-0.895c-0.193-0.038-0.324-0.242-0.289-0.456l0,0
			c0.035-0.216,0.22-0.36,0.414-0.322l4.528,0.895C13.532,58.611,13.663,58.816,13.628,59.03L13.628,59.03z"/>
	</g>
</g>
</svg>
